src/dark/hiso font dark_p04-mail reversed.svg

<svg xmlns="http://www.w3.org/2000/svg" width="99" height="126" viewBox="0 0 99 126"><path fill="#000101" d="M27 22.5l-27 13.5v54l54 27 27-13.5v-54l-54-27zm0 3.35l48.94 24.47-23.821 11.74-48.92-24.46 23.801-11.75zm24 75.09l-14.69-20.67 14.69-9.359v30.029zm-48-60.09l48 24v1.33l-24.98 15.99-23.02-33.31v-8.01zm0 15.101l10.79 15.709-10.79 6.55v-22.259zm0 32.199v-5.28l13.09-7.93 8.86 12.68 8-5.169 18.05 25.369v4.33l-48-24z"/></svg>

<svg xmlns="http://www.w3.org/2000/svg" width="99" height="126"><path fill="#000101" d="M27 22.5L0 36v54l54 27 27-13.5v-54l-54-27zm0 3.35l48.94 24.47-23.821 11.74L3.199 37.6 27 25.85zm24 75.09L36.31 80.27 51 70.911v30.029zM3 40.85l48 24v1.33L26.02 82.17 3 48.86v-8.01zm0 15.101L13.79 71.66 3 78.21V55.951zM3 88.15v-5.28l13.09-7.93 8.86 12.68 8-5.169L51 107.82v4.33l-48-24z"/></svg>
